X:26
T:Tom Sullivan's
Z:robin.beech@mcgill.ca
L:1/8
R:polka
M:2/4
K:D
FG AB | =cB AG | Ad dc | d2 d>e | fd ed | cA AB | (3=cBA GE | D2 D2 ::
fd ed | cA Ae | fd ec | d2 de | fd ed | cA AB | (3=cBA GE | D2 D2 :|
